svg/color/zel.svg

<svg height="32" viewBox="0 0 32 32" width="32" xmlns="http://www.w3.org/2000/svg"><g fill="none" fill-rule="evenodd"><circle cx="16" cy="16" fill="#183c87" fill-rule="nonzero" r="16"/><path d="m5 15.6153846 4.49462366-2.5384615 4.49462364 2.5384615v4.8461539l-4.49462364 2.5384615-4.49462366-2.5384615zm13.0107527 0 4.4946236-2.5384615 4.4946237 2.5384615v4.8461539l-4.4946237 2.5384615-4.4946236-2.5384615zm-.4731183 4.2101842-1.5770609.8667389-1.4982079-.823402v-4.6381365l-4.1003584-2.3157894v-1.6842106l5.5985663-3.2307692 5.5985663 3.2307692v1.728745l-4.0215054 2.271255z" fill="#fff"/></g></svg>

<svg xmlns="http://www.w3.org/2000/svg" width="32" height="32" viewBox="0 0 32 32">
  <g fill="none" fill-rule="evenodd">
    <circle cx="16" cy="16" r="16" fill="#183C87" fill-rule="nonzero"/>
    <path fill="#FFF" d="M5,15.6153846 L9.49462366,13.0769231 L13.9892473,15.6153846 L13.9892473,20.4615385 L9.49462366,23 L5,20.4615385 L5,15.6153846 Z M18.0107527,15.6153846 L22.5053763,13.0769231 L27,15.6153846 L27,20.4615385 L22.5053763,23 L18.0107527,20.4615385 L18.0107527,15.6153846 Z M17.5376344,19.8255688 L15.9605735,20.6923077 L14.4623656,19.8689057 L14.4623656,15.2307692 L10.3620072,12.9149798 L10.3620072,11.2307692 L15.9605735,8 L21.5591398,11.2307692 L21.5591398,12.9595142 L17.5376344,15.2307692 L17.5376344,19.8255688 Z"/>
  </g>
</svg>
